X: 23294
T: Leckan Mor
R: jig
M: 6/8
K: Gminor
|:DGG BAG|d2g fdB|cAA ABc|edc BAG|
DGG BAG|d2g fdB|cde dBG|1 ABD G3:|2 ABD G2d||
|:g2d fde|dBG GAB|ABc cde|dBG A2d|
g2d fde|dBG GAB|ABc F2c|cBA G2d|
g2d fde|dBG GAB|ABc cBA|Bcd cdf|
gdf cde|dBG A2D|ABc Bcd|dcB cBA||

